img/place_contacts-item2.svg

<svg width="20" height="20" viewBox="0 0 20 20" fill="none" xmlns="http://www.w3.org/2000/svg">
<path fill-rule="evenodd" clip-rule="evenodd" d="M2.9165 8.59846C2.9165 4.76523 6.11974 1.66699 9.99438 1.66699C13.8799 1.66699 17.0832 4.76523 17.0832 8.59846C17.0832 10.5301 16.3807 12.3233 15.2244 13.8433C13.9488 15.5199 12.3766 16.9807 10.607 18.1273C10.2019 18.3923 9.8364 18.4123 9.39188 18.1273C7.61212 16.9807 6.03991 15.5199 4.77525 13.8433C3.61816 12.3233 2.9165 10.5301 2.9165 8.59846ZM7.6617 8.81428C7.6617 10.0984 8.70955 11.1084 9.99438 11.1084C11.28 11.1084 12.338 10.0984 12.338 8.81428C12.338 7.54015 11.28 6.48102 9.99438 6.48102C8.70955 6.48102 7.6617 7.54015 7.6617 8.81428Z" fill="#FC6733"/>
</svg>

<svg width="20" height="20" viewBox="0 0 20 20" fill="none" xmlns="http://www.w3.org/2000/svg"><path fill-rule="evenodd" clip-rule="evenodd" d="M2.917 8.598c0-3.833 3.203-6.931 7.077-6.931 3.886 0 7.09 3.098 7.09 6.931 0 1.932-.703 3.725-1.86 5.245a18.388 18.388 0 0 1-4.617 4.284c-.405.265-.77.285-1.215 0a18.033 18.033 0 0 1-4.617-4.284c-1.157-1.52-1.859-3.313-1.859-5.245zm4.745.216c0 1.284 1.048 2.294 2.332 2.294 1.286 0 2.344-1.01 2.344-2.294 0-1.274-1.058-2.333-2.344-2.333a2.345 2.345 0 0 0-2.332 2.333z" fill="#FC6733"/></svg>
